X: 305682
M: 6/8
L: 1/8
K: C
g//^f//g/ |\
ecc cBc | dBG G2 c//B//c/ | Afe fAd | cBA G2 g//^f//g/ |\
ecc cBc | dBG G2F | Edc BAB | B3 c2 H|]
dd/e/c dgb | ag^f g2B | cc/B/c Aag | ^fef g2d |\
cc/B/c aa/g/a | BB/A/B gg/^f/g/ | edc BcA | GBe "^D.C."g2 |]


